source/assets/ui/themes/light/invisible.svg

<?xml version="1.0" encoding="UTF-8" standalone="no"?>
<!-- Created with Inkscape (http://www.inkscape.org/) -->

<svg
   width="24"
   height="24"
   viewBox="0 0 24 24"
   version="1.1"
   id="SVGRoot"
   xml:space="preserve"
   xmlns="http://www.w3.org/2000/svg"
   xmlns:svg="http://www.w3.org/2000/svg"
   xmlns:rdf="http://www.w3.org/1999/02/22-rdf-syntax-ns#"
   xmlns:cc="http://creativecommons.org/ns#"
   xmlns:dc="http://purl.org/dc/elements/1.1/"><defs
     id="defs1725" /><metadata
     id="metadata2103"><rdf:RDF><cc:Work
         rdf:about=""><dc:creator><cc:Agent><dc:title>NinStar</dc:title></cc:Agent></dc:creator></cc:Work></rdf:RDF></metadata><g
     id="g11094"
     transform="matrix(1.2744537,0,0,1.2744537,3.1348486,3.0207123)"
     style="stroke-width:1.34511"><path
       id="path15438"
       style="opacity:1;fill:#4f5660;fill-opacity:1;stroke:none;stroke-width:0.146888px;stroke-linecap:butt;stroke-linejoin:miter;stroke-opacity:1"
       d="m 7.0558267,3.0110388 c -0.077115,-6.03e-5 -0.1542348,8.68e-5 -0.2312825,0.00228 C 4.1836737,3.0884458 1.5196112,4.5237386 -0.09978821,6.9350783 0.49590985,8.0486295 0.9535661,8.6659725 1.8910019,9.3079338 L 4.1003424,7.2995628 C 3.9764046,5.5749037 5.232939,4.2051227 6.9726561,4.1606157 7.188398,4.1615844 7.4030017,4.186163 7.6129556,4.235811 L 8.6702473,3.1796586 C 8.1364633,3.0666086 7.595629,3.0114612 7.0558267,3.0110388 Z M 11.62679,4.4944373 9.7423502,6.3788774 c 0.046224,0.2038124 0.07013,0.4119431 0.070638,0.620931 C 9.8133194,8.5683464 8.5481517,9.9153541 6.9796136,9.9150229 6.7717883,9.9129429 6.564493,9.8882209 6.3621006,9.8409669 L 5.333292,10.867496 c 0.6068288,0.135492 1.1984465,0.200782 1.7420248,0.197103 C 9.4064464,11.048829 12.228796,9.7513128 14.046651,7.062326 13.369942,6.0043851 12.498098,5.1227179 11.62679,4.4944373 Z" /><path
       style="opacity:1;fill:#ed4245;fill-opacity:1;stroke:none;stroke-width:0.146888px;stroke-linecap:butt;stroke-linejoin:miter;stroke-opacity:1"
       d="M 12.916667,-0.11197918 0.25130212,12.553386 1.4329427,13.733073 14.096355,1.0696614 Z"
       id="path948-5" /></g></svg>

<?xml version="1.0" encoding="UTF-8"?>
<svg id="a" width="24" height="24" version="1.1" viewBox="0 0 24 24" xml:space="preserve" xmlns="http://www.w3.org/2000/svg" xmlns:cc="http://creativecommons.org/ns#" xmlns:dc="http://purl.org/dc/elements/1.1/" xmlns:rdf="http://www.w3.org/1999/02/22-rdf-syntax-ns#"><metadata><rdf:RDF><cc:Work rdf:about=""><dc:creator><cc:Agent><dc:title>NinStar</dc:title></cc:Agent></dc:creator></cc:Work></rdf:RDF></metadata><g transform="matrix(1.2745 0 0 1.2745 3.1348 3.0207)" stroke-width="1.3451"><path d="m7.0558 3.011c-0.077115-6.03e-5 -0.15423 8.68e-5 -0.23128 0.00228-2.6409 0.075127-5.3049 1.5104-6.9243 3.9218 0.5957 1.1136 1.0534 1.7309 1.9908 2.3729l2.2093-2.0084c-0.12394-1.7247 1.1326-3.0944 2.8723-3.1389 0.21574 9.687e-4 0.43035 0.025547 0.6403 0.075195l1.0573-1.0562c-0.53378-0.11305-1.0746-0.1682-1.6144-0.16862zm4.571 1.4834-1.8844 1.8844c0.046224 0.20381 0.07013 0.41194 0.070638 0.62093 3.312e-4 1.5685-1.2648 2.9155-2.8334 2.9152-0.20783-0.00208-0.41512-0.026802-0.61751-0.074056l-1.0288 1.0265c0.60683 0.13549 1.1984 0.20078 1.742 0.1971 2.3311-0.01577 5.1535-1.3133 6.9713-4.0023-0.67671-1.0579-1.5486-1.9396-2.4199-2.5679z" fill="#4f5660"/><path d="m12.917-0.11198-12.665 12.665 1.1816 1.1797 12.663-12.663z" fill="#ed4245"/></g></svg>
